assets/social-icons/StackOverflow.svg

<svg id="soc" width="16" height="16" xmlns="http://www.w3.org/2000/svg">
 <path d="m12.658 14.577v-4.27h1.423v5.693h-12.851v-5.693h1.42v4.27h10.006zm-8.583-1.423h7.16v-1.424h-7.16zm0.173-3.235 6.987 1.46 0.3-1.38-6.985-1.459-0.302 1.38zm0.906-3.37 6.47 3.02 0.602-1.3-6.47-3.02-0.602 1.29zm1.81-3.19 5.478 4.57 0.906-1.08-5.478-4.569-0.9 1.078zm3.538-3.359-1.164 0.863 4.27 5.735 1.164-0.862-4.272-5.736z"/>
</svg>

<svg id="soc" xmlns="http://www.w3.org/2000/svg" xmlns:xlink="http://www.w3.org/1999/xlink">
  <path d="M12.658 14.577v-4.27h1.423V16H1.23v-5.693h1.42v4.27h10.006zm-8.583-1.423h7.16V11.73h-7.16v1.424zm.173-3.235l6.987 1.46.3-1.38L4.55 8.54l-.302 1.38zm.906-3.37l6.47 3.02.602-1.3-6.47-3.02-.602 1.29zm1.81-3.19l5.478 4.57.906-1.08L7.87 2.28l-.9 1.078zM10.502 0L9.338.863l4.27 5.735 1.164-.862L10.5 0z"/>
</svg>
